X:0497
M:C
L:1/8
Q:1/2=132 "Lively"
K:D
ef|g2g2 f2 d2|e2c2 A2ag |f2g2 Te3  d|d6 :|
f2|e2a2 a2^g2|a6     e>f|g2g2  f3  e|e6
ag|f2d2 a4   |ABcd efg2 |f3 g Te3  d|d6 :|

